epam-assets/icon-sources/18/internal-logo/training.by.svg

<svg width="18" height="18" viewBox="0 0 18 18" fill="none" xmlns="http://www.w3.org/2000/svg">
<g id="18/internal-logo/training.by">
<path id="icon" fill-rule="evenodd" clip-rule="evenodd" d="M1.35087 5.97259C1.36615 6.2484 1.54112 6.48932 1.80276 6.585L4.42572 7.54026V10.1253C4.42572 10.9303 4.96068 11.6236 5.783 12.1076C6.60755 12.593 7.74289 12.8838 9.0071 12.8838C10.2713 12.8838 11.4072 12.593 12.2324 12.1076C13.0552 11.6236 13.5909 10.9304 13.5909 10.1253V7.53469L13.6899 7.49859C13.8917 7.42466 13.9978 7.2018 13.9234 6.9978C13.7825 6.68854 13.4232 6.76368 13.4232 6.76368L10.0573 7.99065C9.35267 8.2467 8.59 8.22747 7.88924 7.97197L2.27958 5.92667L8.40359 3.0234C8.78103 2.84287 9.21722 2.84311 9.59465 3.02363L15.7205 5.92669L15.5078 6.00427C15.306 6.07819 15.1999 6.30099 15.2742 6.50496C15.3476 6.70683 15.5702 6.81389 15.7745 6.73918L16.1976 6.58493C16.4581 6.48968 16.637 6.24918 16.6494 5.97092C16.6617 5.69356 16.5074 5.43751 16.256 5.31767L9.92981 2.31853C9.33859 2.03896 8.66144 2.03903 8.07023 2.31859L1.74465 5.31743C1.49149 5.43533 1.33854 5.69478 1.35078 5.97094L1.35087 5.97259ZM5.20661 10.1253V7.82465L7.6744 8.7234C8.10217 8.87891 8.55241 8.95667 9.00009 8.95667C9.44771 8.95667 9.89829 8.87874 10.3235 8.7258L12.8076 7.82023V10.1253C12.8076 10.6181 12.4166 11.1103 11.7137 11.4885C11.0187 11.8625 10.0563 12.1016 9.0071 12.1016C7.95795 12.1016 6.99548 11.8625 6.30046 11.4885C5.59761 11.1103 5.20661 10.6181 5.20661 10.1253ZM13.6812 15.7802C13.6331 15.7802 13.585 15.7657 13.5441 15.7368C13.5348 15.7304 13.526 15.7235 13.5179 15.716C13.526 15.7235 13.5348 15.7304 13.5441 15.7368C13.585 15.7657 13.6331 15.7802 13.6812 15.7802C13.7196 15.7802 13.7557 15.7729 13.7942 15.7537L15.6624 14.7724C15.7586 14.7218 15.8091 14.6133 15.7851 14.5072L15.4233 12.8831C15.4233 12.8831 15.4233 12.8831 15.4233 12.8831L15.7851 14.5072C15.8091 14.6133 15.7586 14.7218 15.6624 14.7724L13.7942 15.7537C13.7557 15.7729 13.7196 15.7802 13.6812 15.7802ZM14.2646 13.0255H14.2646L13.9817 15.1099L13.9817 15.11L14.2646 13.0255ZM13.6848 12.6148L13.2945 15.4877C13.2751 15.6312 13.3366 15.7764 13.4586 15.8601C13.5254 15.9069 13.6035 15.9302 13.6812 15.9302C13.7411 15.9302 13.8004 15.9183 13.8612 15.888L15.7322 14.9052C15.888 14.8232 15.9704 14.6468 15.9314 14.4741L15.514 12.6L15.514 12.1667C15.514 11.8141 15.3165 11.5085 15.0258 11.3552V6.32227C15.0258 6.1344 14.8899 5.97003 14.7017 5.93819L14.7009 5.93807L8.67956 4.87518C8.46269 4.83591 8.26501 4.98345 8.22662 5.19135C8.18733 5.40797 8.33331 5.60659 8.54157 5.64526L14.2425 6.65064V11.3225C13.9142 11.4622 13.6848 11.7887 13.6848 12.1667V12.6148ZM14.8808 12.2478H14.3133V12.1667C14.3133 12.01 14.4407 11.8822 14.597 11.8822C14.7533 11.8822 14.8808 12.01 14.8808 12.1667V12.2478ZM14.1695 14.8419L14.4157 13.0275H14.8111L15.1041 14.3506L14.1695 14.8419Z" fill="#6C6F80"/>
</g>
</svg>

<svg xmlns="http://www.w3.org/2000/svg" width="18" height="18" fill="none" viewBox="0 0 18 18">
  <path fill="#6C6F80" fill-rule="evenodd" d="M1.35 5.973a.69.69 0 0 0 .453.612l2.623.955v2.585c0 .805.535 1.499 1.357 1.983.825.485 1.96.776 3.224.776 1.264 0 2.4-.291 3.225-.776.823-.484 1.359-1.178 1.359-1.983v-2.59l.099-.036a.39.39 0 0 0 .233-.501c-.14-.31-.5-.234-.5-.234L10.057 7.99a3.159 3.159 0 0 1-2.168-.019L2.28 5.927l6.125-2.904c.377-.18.813-.18 1.19 0l6.127 2.904-.213.077a.39.39 0 0 0 .267.735l.423-.154a.686.686 0 0 0 .058-1.267l-6.326-3a2.166 2.166 0 0 0-1.86 0l-6.325 3a.686.686 0 0 0-.394.653v.002Zm3.857 4.152v-2.3l2.467.898a3.886 3.886 0 0 0 2.65.003l2.484-.906v2.305c0 .493-.391.985-1.094 1.364-.695.373-1.658.613-2.707.613s-2.012-.24-2.707-.614c-.702-.378-1.093-.87-1.093-1.363Zm8.474 5.655a.244.244 0 0 0 .113-.026l1.868-.982a.24.24 0 0 0 .123-.265l-.362-1.624.362 1.624a.24.24 0 0 1-.123.265l-1.868.982a.244.244 0 0 1-.113.026Zm.584-2.755-.283 2.085.283-2.085Zm-.58-.41-.39 2.873a.388.388 0 0 0 .386.442c.06 0 .12-.012.18-.042l1.871-.983a.39.39 0 0 0 .2-.43l-.418-1.875v-.433a.915.915 0 0 0-.488-.812V6.322a.39.39 0 0 0-.324-.384H14.7L8.68 4.875a.39.39 0 0 0-.138.77l5.7 1.006v4.671a.918.918 0 0 0-.557.845v.448Zm1.196-.367h-.568v-.081c0-.157.128-.285.284-.285.156 0 .284.128.284.285v.08Zm-.712 2.594.247-1.815h.395l.293 1.324-.934.49Z" clip-rule="evenodd"/>
</svg>
